X:19137
T:Xota de L.leitariegos (MG 05) (Arrg.)
T:Jota de L.leitariegos (MG 05) (Arrg.)
T:Jota de Vil.larín (Arrg.)
R:Xota
C:Tradicional
S:Música Tradicional Asturiana, (C) Tello & Tito. Asturies, 2001.
S:http://pagina.de/MusTradAst <telloytito@asturies.org>
O:L.leitariegos
A:Asturies
G:Arrg.
Z:Métodu de Gaita 05
E:Nivel 1
M:3/8
L:1/8
Q:3/8=88
K:A
"E"e|:"E7"e2 d|"A"cdc|"A"BAA|"D"d2 c|
"E7"Bcd|"E"e2 e|"E7"e2 d|"A"cdc|
"A"BAc|"E7"B2 A|"E7"GAB|[1 "A"A2 e:|[2 "A"A2 c/2d/2
|:"E"efe|"E7"dce|"E7"dce|"E7"e2 c/2d/2|
"E"efe|"A"ece|"E7"dcB|[1"A"A2 c/2d/2:|[2 "A"A2 A/2B/2||
"D"cdd|"A"cBA|"E7"GAB|"A"c2 A/2B/2|
"D"cdd|"A"cBA|"A"AAB|"A"A2 A/2B/2|
"D"cdd|"A"cBA|"E7"GAB|"A"c2 A/2B/2|
"D"cdd|"A"cBe|"E7"dcB|"A"A3|
"A"A2 e||


